X:1
T: Dr. Gregory Grant's Strathspey
C:R. Mackintosh
R:Strathspey
Q: 128
K:D
M:4/4
L:1/16
|:d2|AD3 DF3 E3D B,B3|AD3 AF3 B3A Bd3|Ad3 Fd3 E3D B,c3|dcBA d2F2 AAA2 A2d2|
AD3 DF3 E3D B,B3|AD3 AF3 B3A Bd3|Ad3 Fd3 E3D B,c3|dcBA d2F2 AAA2 A2g2|
f3d fgaf g2e2 e2fg|fd3 ad3 bd3 ad3|ga3 fg3 e3d ef3|dcde d2F2 AAA2 A2g2|
f3d fgaf g2e2 e2fg|fd3 ad3 bd3 ad3|((3g2a2g2) ((3f2g2f2) e3d ef3|dcBA d2F2 DDD2 D2:|
